X:1
T:Essai
T:La faute à Voltaire
T:Paroles :  Jean-Marc Natel Musique : Claude-Michel Schönberg Arrangements : J. Peuplu
T:1 7 / 0 6 / 1 5 L a c l e f d e s c h a n t s 
%%score [ 1 2 3 4 ]
L:1/8
Q:1/4=120
M:4/4
K:C
V:1 treble nm="Soprano" snm="S"
V:2 treble nm="Alto" snm="A"
V:3 treble-8 nm="Tenor" snm="T"
V:4 bass nm="Bass" snm="B"
V:1
 z/ z/ z/ C/ |: C>D (3ECD- D2 z z/ C/ | B,>C (3DB,C- C2 z z/ C/ | C>D E>C D>D D>C | %4
w: 1.Je|suis tom- bé par terre, * c'est|la faute à Vol- taire * le|nez dans le ruis- seau, c'est la faute|
w: ||||
w: ||||
 B,2 A>G- G2 z3/2 E/ | E>F (3GEF- F2 z z/ A/ | ^G>A (3BEc- c2 z z/ c/ | c>c c>c c>c A>F | %8
w: à Rous- seau * Je|ne suis pas no- taire, * c'est|la fante à Vol- taire * Je|suis pe- tit ni- veau, c'est la faute|
w: * * * * Joie|est mon ca- rac- tère * *|* * * * * * Mi-|sère est mon trous- seau * * *|
w: ||||
 E2 D>C- C2 z3/2 G/ | G>G (3GGG z3/2 G/ E>C |[M:2/4] D>C B,>C- |[M:4/4] C2 z4 z3/2 c/ | %12
w: à Rous- * seau 1.Je|suis tom bé par terre même Dieu ne|sait pas com ment|* Je|
w: * * * * 2.Je|suis un va- nu- pieds mais nu le|pied va quand même|* Je|
w: * * * * 3.On|me con- naît par- tout de Cli- gnan-|court à Bel- leville|* Je|
 c>c c>c c>c c>c |[M:2/4] d>B A>G- |[M:4/4] G2 z4 z3/2 c/ | c>c c>c c>c c>c |[M:2/4] B>B A>G- | %17
w: n'ai ni père ni mère qui n're con|naissent leur en fant|* J'me|suis fait une fa mille a vec ceux|qui n'en ont pas|
w: prends ce qui me plaît pour pay- er|pas de pro- blème|* Je|fais des pied de nez aux mar- chands|et à leurs dames|
w: suis ai- mé par tous sauf les ser-|gents de la ville|* Je|vis de ce qui vient et de ce|qui ne vient pas|
[M:4/4] G2 z4 z3/2 G/ | G>G G>G G>G E>C | D>C B,>C- C2 z3/2 C/ :| %20
w: * Joy|eux drille en gue nille a vec un|coeur gros comme ça * Je|
w: * Et|pour te rat- tra- per il leur faut|plus qu'un gen- darme * *|
w: * Sans|sa- voir à l'a- vance l'me- nu du|pro- chain re- pas * *|
V:2
 z/ z/ z/ C/ |: C>D (3ECD- D2 z z/ C/ | B,>C (3DB,C- C2 z z/ C/ | C>D E>C D>D D>C | %4
w: 1.Je|suis tom- bé par terre, * c'est|la faute à Vol- taire * le|nez dans le ruis- seau, c'est la faute|
 B,2 A>G- G2 z3/2 z/ | C4 C2 C2 | E2 ^G>A- A2 =G2 | ^F4 =F2 D2 | C2 D>C- C2 z3/2 z/ | z8 | %10
w: à Rous- seau *|C'est la faute|à Vol taire- * *|C'est la faute|à Rous- * seau||
[M:2/4] z4 |[M:4/4] z8 | G3 G G4 |[M:2/4] G2 ^F>G- |[M:4/4] G2 z2 z4 | E3 E F4 |[M:2/4] D2 D>E- | %17
w: ||Doum Dou Doum|||Doum Dou Doum||
[M:4/4] E2 z2 z4 | C2 B,2 _B,2 A,2 | =B,2 B,>C- C2 z2 :| %20
w: |A vec un coeur|gros comme * ça|
V:3
 z2 |: E4 F2 F2 | D2 D>E- E4 | G4 A2 A2 | G2 F>E- E2 z2 | _B4 A2 A2 | =B2 d>c- c2 z2 | e4 d2 F2 | %8
w: |C'est la faute|à Vol taire *|c'est la faute|à Rous seau *|C'est la faute|à Vol taire- *|C'est la faute|
 G2 B>c- c2 z3/2 z/ | E3 E E4 |[M:2/4] D4 |[M:4/4] C2 z2 z4 | E3 E E4 |[M:2/4] B2 c>B- | %14
w: à Rous- * seau|Doum Dou Doum|Doum|doum|Doum Dou Doum||
[M:4/4] B2 z2 z4 | c3 c A4 |[M:2/4] G2 B>c- |[M:4/4] c2 z2 z4 | E2 F2 G2 ^F2 | F2 F>E- E2 z2 :| %20
w: |Doum Dou Doum|||A vec un coeur|gros comme * ça|
V:4
 z2 |: C,4 D,2 A,2 | G,2 G,>C,- C,4 | E,4 F,2 F,2 | D,2 B,,>C,- C,2 z2 | C,4 F,2 F,2 | %6
w: |C'est la faute|à Vol taire *|c'est la faute|à Rous seau *|C'est la faute|
 E,2 E,>A,- A,2 z3/2 z/ | D,4 F,2 D,2 | G,2 G,>C,- C,2 z3/2 z/ | C,3 C, C,4 |[M:2/4] F,4 | %11
w: à Vol taire- *|C'est la faute|à Rous- * seau|Doum Dou Doum|Doum|
[M:4/4] E,2 z2 z4 | C,3 C, A,4 |[M:2/4] D,2 D,>G,- |[M:4/4] G,2 z2 z4 | C,3 C, F,4 | %16
w: doum|Doum Dou Doum|||Doum Dou Doum|
[M:2/4] D,2 F,>E,- |[M:4/4] E,2 z2 z4 | C,2 D,2 E,2 C,2 | G,2 G,>C,- C,2 z2 :| %20
w: ||A vec un coeur|gros comme * ça|

